lib/brands/icons/direct-debit.svg

<svg xmlns="http://www.w3.org/2000/svg" fill="none" aria-hidden="true" viewBox="0 0 48 48"><g id="direct_debit-Icon"><circle id="bg" cx="24" cy="24" r="21" fill="#231F20"/><path id="direct_debit" fill="white" fill-rule="evenodd" d="M24.8132 20.863V33.7309C24.8132 33.7309 17.4792 32.3841 17.4792 27.2703C17.4792 23.1893 22.9085 21.3913 24.8132 20.863ZM24.8132 20.622C20.405 20.2982 10.4112 22.4004 10.4112 26.9997C10.4112 30.0005 15.703 34.3846 24.3218 34.5001C24.6619 34.5001 34.4531 34.116 34.3026 23.4223C34.1757 14.4428 27.569 12.8698 25.4552 12.5953V12.0484C33.8779 12.5914 40.5 17.7467 40.5 23.999C40.5 30.6157 33.0911 36 23.9809 36C14.8715 36 7.5 30.6157 7.5 23.999C7.5 17.3844 14.8715 12 23.9809 12C24.2608 12 24.5382 12.0059 24.8132 12.0148V20.622Z" clip-rule="evenodd"/></g></svg>

<svg xmlns="http://www.w3.org/2000/svg" fill="none" aria-hidden="true" viewBox="0 0 48 48"><circle cx="24" cy="24" r="21" fill="#231F20"/><path fill="#fff" fill-rule="evenodd" d="M24.813 20.863v12.868s-7.334-1.347-7.334-6.46c0-4.082 5.43-5.88 7.334-6.408Zm0-.241C20.405 20.298 10.411 22.4 10.411 27c0 3 5.292 7.385 13.91 7.5.34 0 10.132-.384 9.982-11.078-.127-8.98-6.734-10.552-8.848-10.827v-.547C33.878 12.591 40.5 17.747 40.5 24c0 6.616-7.409 12-16.52 12C14.872 36 7.5 30.616 7.5 23.999 7.5 17.384 14.871 12 23.98 12c.28 0 .558.006.833.015v8.607Z" clip-rule="evenodd"/></svg>
